!!!OTL: Die verkaufte Muellerin Es wollt ein Mueller frueh aufstehn,
!!!ARE: Europa, Mitteleuropa, Deutschland / France, Lothringen
!!!YOR: 4, S. 344
!!    1926 gedruckt in Heidelberg
!!!SCT: Q0086R
!!!YEM: Copyright 1995, estate of Helmut Schaffrath.
**kern	**text
*ICvox	*
*M3/4	*
*k[f#]	*
*G:	*
!LO:TX:a:t=141 Lothringen	!
{8g	Es
8g	wollt
8b	ein
=1	=1
4dd	Mül-
4dd	-ler
8ee	früh
[16dd	auf-
16dd]	.
=2	=2
4.cc}	-ſtehn,
{8b	wollt
8dd	in
8b	den
=3	=3
4.g	Wald
8g	ſpa-
8b	-ʒie-
8dd	-ren-
=4	=4
4a	-gehn.
8r}	.
{8g	Und
8g	wie
8b	er
=5	=5
4.dd	in
8dd	den
8ee	Wald
[16dd	hinein-
16dd]	.
=6	=6
4.cc}	-kam,
{8b	drei
8dd	Mör-
8b	-der
=7	=7
4.g	ihm
8g	ent-
8b	-ge-
8dd	-gen-
=8	=8
4a	-kam'n.
8r}	.
{8d	Drei
8d	Mörder
8d	.
=9	=9
8cc	wa-
8cc	-ren
4cc	es,
8aL	drei
8ccJ	.
=10	=10
8bL	Räu-
8aJ	.
8g}	-ber.
==	==
!!!AGN: Ballade, Menschenhandel, Rettung, Hinrichtung
!!!ONB: ESAC (Essen Associative Code) Database: BALLADE
!!!AMT: simple triple
!!!AIN: vox
!!!EED: Helmut Schaffrath
!!!EEV: 1.0
!!!source: Deutsche Volkslieder mit ihren Melodien. Herausgegeben vom Deutschen Volksliedarchiv. Vierter Band. Berlin 1959.
!!!page: 344
!!!ENC: Anna Maria Matuszewska
!!!EEV: 2025/02/27
*-	*-
